!!!COM: Palestrina, Giovanni Perluigi da
!!!OPR: Tu es Petrus (1601)
!!!OTL: Kyrie
**kern	**kern	**kern	**kern	**kern	**kern
*Ibass	*Itenor	*Itenor	*Icalto	*Icalto	*Icant
!Bassus	!Tenor 2	!Tenor 1	!Altus 2	!Altus 1	!Cantus
*clefF4	*clefGv2	*clefGv2	*clefG2	*clefG2	*clefG2
*k[]	*k[]	*k[]	*k[]	*k[]	*k[]
*G:mix	*G:mix	*G:mix	*G:mix	*G:mix	*G:mix
*M4/2	*M4/2	*M4/2	*M4/2	*M4/2	*M4/2
=1	=1	=1	=1	=1	=1
0r	0r	0d	0r	0r	0r
=2	=2	=2	=2	=2	=2
0G	0r	1B	0r	0r	0r
.	.	1d	.	.	.
=3	=3	=3	=3	=3	=3
1E	0r	1e	0g	0r	0r
1G	.	2d	.	.	.
.	.	[2e	.	.	.
=4	=4	=4	=4	=4	=4
1A	0r	2e]	1e	0r	1r
.	.	4d	.	.	.
.	.	4c	.	.	.
2G	.	2B	2g	.	[1dd
2F#	.	2A	[2a	.	.
=5	=5	=5	=5	=5	=5
1G	1r	2.B	4a]	0r	0dd]
.	.	.	4g	.	.
.	.	.	1g	.	.
.	.	4G	.	.	.
1D	[1d	1A	.	.	.
.	.	.	2f#	.	.
=6	=6	=6	=6	=6	=6
1.G	1d]	1G	0g	0r	1b
.	1B	2r	.	.	1dd
2G	.	2g	.	.	.
=7	=7	=7	=7	=7	=7
2C	1c	1e	0r	0g	1ee
2c	.	.	.	.	.
2B	2G	4g	.	.	2dd
.	.	4f	.	.	.
[2c	4c	4e	.	.	[2ee
.	4d	4d	.	.	.
=8	=8	=8	=8	=8	=8
2c]	4e	1c	0r	1e	2ee]
.	4f	.	.	.	.
4B	2.g	.	.	.	4dd
4A	.	.	.	.	4cc
2G	.	2d	.	1g	4b
.	4f	.	.	.	4cc
2B-	2d	2G	.	.	[2dd
=9	=9	=9	=9	=9	=9
2A	2e	1c	0r	1a	4dd]
.	.	.	.	.	4cc
2F	2f	.	.	.	1cc
1G	1d	2r	.	2.g	.
.	.	[2G	.	.	2b
.	.	.	.	4f	.
=10	=10	=10	=10	=10	=10
1C	1c	2G]	0g	4e	1cc
.	.	.	.	4d	.
.	.	2c	.	2e	.
1r	1r	2B	.	2d	2dd
.	.	[2c	.	[2g	2ee
=11	=11	=11	=11	=11	=11
2r	1r	4c]	1e	2g]	1cc
.	.	4B	.	.	.
1c	.	2A	.	2a	.
.	2r	1G	1g	1d	1dd
2B	[2g	.	.	.	.
=12	=12	=12	=12	=12	=12
2c	2g]	1r	1a	2e	2r
2d	2f#	.	.	2d	1dd
2B	2g	2r	[1g	1r	.
2c	2e	[2c	.	.	2ee
=13	=13	=13	=13	=13	=13
1G	1d	2c]	1g]	2r	2.gg
.	.	2B	.	1g	.
.	.	.	.	.	4ff
1r	1r	2c	1a	.	2ee
.	.	2d	.	2f#	[2dd
=14	=14	=14	=14	=14	=14
0r	0r	2B	1g	2g	2dd]
.	.	2c	.	2e	1cc
.	.	1G	2r	1d	.
.	.	.	[2g	.	2b
=15	=15	=15	=15	=15	=15
0r	0r	1d	2g]	2r	2.a
.	.	.	2f#	2d	.
.	.	.	.	.	4b
.	.	1r	2g	2e	[1cc
.	.	.	2a	2f	.
=16	=16	=16	=16	=16	=16
0r	1r	0r	2f	2a	2cc]
.	.	.	2g	1g	2b
.	2r	.	2.d	.	1a
.	[2d	.	.	2f#	.
.	.	.	4c	.	.
=17	=17	=17	=17	=17	=17
1.G	2d]	0r	4B	1g	1b
.	.	.	4A	.	.
.	2B	.	2G	.	.
.	1d	.	1A	2r	1a
2F#	.	.	.	2a	.
=18	=18	=18	=18	=18	=18
2G	1e	2r	2B	2g	0r
2A	.	1c	2c	2e	.
2F	1d	.	2r	2a	.
2G	.	2B	[2g	4g	.
.	.	.	.	4f	.
=19	=19	=19	=19	=19	=19
1A	0r	1c	2g]	2e	2r
.	.	.	2f#	2c	1cc
1G	.	2d	2.g	2r	.
.	.	2G	.	[2g	2b
.	.	.	4f	.	.
=20	=20	=20	=20	=20	=20
2r	0r	1A	2e	2g]	2cc
2D	.	.	1d	2f#	2dd
2G	.	1r	.	2g	2b
2F	.	.	[2f	2a	2cc
=21	=21	=21	=21	=21	=21
1B-	2r	1r	2f]	2f	1dd
.	1d	.	4e	2g	.
.	.	.	4d	.	.
1A	.	2r	1e	2.a	2r
.	2c	[2a	.	.	2ee
.	.	.	.	4cc	.
=22	=22	=22	=22	=22	=22
0r	2d	2a]	0r	1b	2ff
.	2e	2g	.	.	1ee
.	2c	2a	.	1a	.
.	2d	2f	.	.	[2dd
=23	=23	=23	=23	=23	=23
1r	1A	1e	2r	2.a	2dd]
.	.	.	1a	.	2cc#
.	.	.	.	4g	.
2r	2.d	1d	.	2f	[1dd
[2G	.	.	2b	2g	.
.	4c	.	.	.	.
=24	=24	=24	=24	=24	=24
2G]	2B	2r	2g	2.d	1dd]
2F	2A	1d	2a	.	.
.	.	.	.	4f	.
2G	2r	.	2b	1e	1r
2A	[2A	2c	[2a	.	.
=25	=25	=25	=25	=25	=25
2F	2A]	2d	2a]	2r	1r
2G	2d	2B	1g	2g	.
1D	2.d	1A	.	1a	2r
.	.	.	2f#	.	[2dd
.	4c	.	.	.	.
=26	=26	=26	=26	=26	=26
2r	2B	[0G	[0g	2d	2dd]
2C	2e	.	.	2.g	2cc
2BB	2d	.	.	.	2dd
.	.	.	.	4f	.
[2C	2c	.	.	[2e	2ee
=27	=27	=27	=27	=27	=27
2C]	2.g	0G]	0g]	2e]	2cc
2G	.	.	.	2B	2dd
.	4f	.	.	.	.
1C	4e	.	.	1c	1ee
.	4d	.	.	.	.
.	[2c	.	.	.	.
=28	=28	=28	=28	=28	=28
[0G	2c]	[0G	[0g	[0d	[0dd
.	4B	.	.	.	.
.	4A	.	.	.	.
.	1B	.	.	.	.
=29	=29	=29	=29	=29	=29
0G]	0B	0G]	0g]	0d]	0dd]
=30	=30	=30	=30	=30	=30
0r	0r	0r	0r	0r	1dd
.	.	.	.	.	2dd
.	.	.	.	.	2b
=31	=31	=31	=31	=31	=31
0r	0r	0r	0r	1r	1cc
.	.	.	.	1g	1b
=32	=32	=32	=32	=32	=32
0r	0r	0r	0r	2g	2g
.	.	.	.	2e	2g
.	.	.	.	1f	4a
.	.	.	.	.	4b
.	.	.	.	.	4cc
.	.	.	.	.	4dd
=33	=33	=33	=33	=33	=33
0r	0r	0r	1g	1e	4ee
.	.	.	.	.	4ff
.	.	.	.	.	2.ee
.	.	.	2g	2c	.
.	.	.	.	.	4dd
.	.	.	2e	2c	4cc
.	.	.	.	.	4b
=34	=34	=34	=34	=34	=34
0r	0r	0r	1f	2d	2a
.	.	.	.	2.a	2.cc
.	.	.	1e	.	.
.	.	.	.	4g	4b
.	.	.	.	[2g	4b
.	.	.	.	.	8a
.	.	.	.	.	8g
=35	=35	=35	=35	=35	=35
0r	0r	0r	2c	2g]	1a
.	.	.	2d	2f#	.
.	.	.	2e	2g	[1g
.	.	.	[2c	2e	.
=36	=36	=36	=36	=36	=36
1G	0r	0r	2c]	1.d	1g]
.	.	.	4B	.	.
.	.	.	4A	.	.
2G	.	.	2B	.	2r
2E	.	.	[2e	4c	2cc
.	.	.	.	4B	.
=37	=37	=37	=37	=37	=37
1F	1r	0r	2e]	1A	2cc
.	.	.	2d	.	2a
1E	1g	.	1e	2r	2cc
.	.	.	.	2e	2b
=38	=38	=38	=38	=38	=38
2C	2g	0r	0r	2e	4cc
.	.	.	.	.	4dd
2c	2e	.	.	2c	1ee
2A	1f	.	.	2cc	.
2B	.	.	.	4b	2dd
.	.	.	.	4a	.
=39	=39	=39	=39	=39	=39
2.c	1e	2r	1r	2g	0ee
.	.	2g	.	2c	.
4d	.	.	.	.	.
2e	1c	2g	2r	1g	.
2c	.	2e	2cc	.	.
=40	=40	=40	=40	=40	=40
1d	2r	1f	2a	0r	2r
.	2f	.	2b	.	2dd
1c	2g	1e	[1cc	.	2ee
.	2g	.	.	.	4gg
.	.	.	.	.	4ff
=41	=41	=41	=41	=41	=41
0r	2a	1c	1cc]	1r	4ee
.	.	.	.	.	4dd
.	1g	.	.	.	2ee
.	.	1d	1a	2r	2.dd
.	2f#	.	.	2d	.
.	.	.	.	.	4cc
=42	=42	=42	=42	=42	=42
2r	1g	1r	1g	2e	4b
.	.	.	.	.	4a
2G	.	.	.	2g	2b
2A	1r	2r	1r	2f	1cc
2c	.	2c	.	2e	.
=43	=43	=43	=43	=43	=43
2B	0r	2d	1r	2d	0r
2.A	.	2f	.	2.c	.
.	.	2e	2r	.	.
4G	.	.	.	4B	.
2F	.	[2d	2d	2A	.
=44	=44	=44	=44	=44	=44
1E	0r	4d]	2e	1G	2r
.	.	4c	.	.	.
.	.	1c	2g	.	2cc
1D	.	.	2.f	1r	2dd
.	.	2B	.	.	2ff
.	.	.	4g	.	.
=45	=45	=45	=45	=45	=45
1C	2r	1c	4a	0r	1ee
.	.	.	4b	.	.
.	2c	.	2cc	.	.
1r	2d	1r	2b	.	2dd
.	2f	.	[2a	.	[2cc
=46	=46	=46	=46	=46	=46
0r	1e	1r	4a]	0r	4cc]
.	.	.	4g	.	4b
.	.	.	1g	.	4b
.	.	.	.	.	8a
.	.	.	.	.	8g
.	1d	2r	.	.	2.a
.	.	2d	2f	.	.
.	.	.	.	.	4b
=47	=47	=47	=47	=47	=47
0r	2c	2e	2e	1g	2cc
.	2B	1g	2d	.	2dd
.	1A	.	2e	2a	1cc
.	.	2f	2c	[2cc	.
=48	=48	=48	=48	=48	=48
0r	1G	2e	1g	2cc]	2r
.	.	2d	.	2b	2dd
.	1r	2c	1r	2a	2ee
.	.	2e	.	2g	[2gg
=49	=49	=49	=49	=49	=49
1D	0r	2.d	0r	1a	2gg]
.	.	.	.	.	2ff
.	.	4c	.	.	.
2E	.	4B	.	1g	1ee
.	.	4A	.	.	.
[2G	.	[2B	.	.	.
=50	=50	=50	=50	=50	=50
2G]	1r	4B]	1d	0r	1dd
.	.	4c	.	.	.
2F	.	1d	.	.	.
1E	1G	.	2e	.	1g
.	.	2c#	[2g	.	.
=51	=51	=51	=51	=51	=51
1D	1A	1d	2g]	1r	2r
.	.	.	2f	.	2dd
1C	2.c	2r	2.e	1g	2ee
.	.	2e	.	.	[2gg
.	4B	.	4d	.	.
=52	=52	=52	=52	=52	=52
0r	1A	2e	1c	2a	2gg]
.	.	4c	.	1cc	2ff
.	.	4d	.	.	.
.	1G	4e	1g	.	2ee
.	.	4f	.	.	.
.	.	2g	.	2b	[2dd
=53	=53	=53	=53	=53	=53
1r	2A	2e	1c	1a	4dd]
.	.	.	.	.	4cc
.	2F	2f	.	.	1cc
2r	1G	1d	2r	1g	.
2G	.	.	2g	.	2b
=54	=54	=54	=54	=54	=54
2A	0r	2c	2f	2r	4cc
.	.	.	.	.	4dd
1c	.	2g	1e	2c	4ee
.	.	.	.	.	4ff
.	.	2c	.	2e	2gg
2B	.	2d	2d	[2g	2g
=55	=55	=55	=55	=55	=55
1A	2r	2e	1c	2g]	2a
.	2c	2c	.	2f	1cc
1G	1d	1r	2r	1g	.
.	.	.	2g	.	2b
=56	=56	=56	=56	=56	=56
2.F	1f	0r	2a	0c	2.a
.	.	.	1cc	.	.
4G	.	.	.	.	4b
2A	2e	.	.	.	4cc
.	.	.	.	.	4dd
2E	2g	.	2b	.	2ee
=57	=57	=57	=57	=57	=57
1F	2.f	1r	1a	0r	2dd
.	.	.	.	.	1cc
.	4e	.	.	.	.
1G	1d	2r	[1g	.	.
.	.	2d	.	.	2b
=58	=58	=58	=58	=58	=58
1C	1c	2e	2g]	1g	[0cc
.	.	2g	2e	.	.
2.F	2.A	1f	2f	2a	.
.	.	.	[2a	[2cc	.
4G	4B	.	.	.	.
=59	=59	=59	=59	=59	=59
4A	2.c	2.e	4a]	4cc]	1cc_
4B	.	.	4g	4b	.
2c	.	.	2e	2g	.
.	4B	4d	.	.	.
1F	4A	1c	1f	1a	1cc_
.	4G	.	.	.	.
.	2F	.	.	.	.
=60	=60	=60	=60	=60	=60
0C	0G	0c	0e	0g	0cc]
=61	=61	=61	=61	=61	=61
0r	0r	0r	0r	1g	0r
.	.	.	.	2g	.
.	.	.	.	2f	.
=62	=62	=62	=62	=62	=62
0r	0r	1c	0r	1e	0r
.	.	2c	.	1g	.
.	.	2B	.	.	.
=63	=63	=63	=63	=63	=63
0r	0r	2A	1r	2f	0r
.	.	2c	.	2e	.
.	.	2.B	2r	1d	.
.	.	.	2g	.	.
.	.	8A	.	.	.
.	.	8G	.	.	.
=64	=64	=64	=64	=64	=64
0r	0r	1A	2g	1c	1cc
.	.	.	2f	.	.
.	.	1G	2e	2g	2cc
.	.	.	4d	2G	2b
.	.	.	4e	.	.
=65	=65	=65	=65	=65	=65
0r	0r	0r	4f	2d	2a
.	.	.	4g	.	.
.	.	.	2.a	2c	2cc
.	.	.	.	1e	2.b
.	.	.	4g	.	.
.	.	.	[2g	.	.
.	.	.	.	.	8a
.	.	.	.	.	8g
=66	=66	=66	=66	=66	=66
1r	0r	2r	2g]	1d	1a
.	.	2d	2f#	.	.
1c	.	4e	[1g	2r	2g
.	.	4d	.	.	.
.	.	4e	.	2g	2cc
.	.	4f	.	.	.
=67	=67	=67	=67	=67	=67
2c	0r	4g	1g]	2e	2ee
.	.	4c	.	.	.
2B	.	4d	.	2g	2dd
.	.	4e	.	.	.
2A	.	2f	1r	2a	1cc
2c	.	2e	.	[2g	.
=68	=68	=68	=68	=68	=68
2.B	0r	2d	1r	2g]	1dd
.	.	1g	.	2G	.
8A	.	.	.	.	.
8G	.	.	.	.	.
1A	.	.	2r	1c	1cc
.	.	2f#	2cc	.	.
=69	=69	=69	=69	=69	=69
1G	0r	2g	2cc	2.d	2r
.	.	2G	2b	.	1gg
.	.	.	.	4e	.
1r	.	2d	2a	4f	.
.	.	.	.	4g	.
.	.	2A	2cc	[2a	2ff
=70	=70	=70	=70	=70	=70
0r	0r	2B	2.b	4a]	2ee
.	.	.	.	4g	.
.	.	2G	.	1g	2dd
.	.	.	8a	.	.
.	.	.	8g	.	.
.	.	2.d	1a	.	[1dd
.	.	.	.	2f#	.
.	.	4c	.	.	.
=71	=71	=71	=71	=71	=71
2r	0r	2B	1g	2g	2dd]
2c	.	2c	.	2e	2ee
2c	.	1G	2r	2g	1dd
2B	.	.	2g	2d	.
=72	=72	=72	=72	=72	=72
2A	0r	1r	2a	2f	1cc
2c	.	.	4g	2e	.
.	.	.	4a	.	.
2.B	.	1G	4b	2d	1dd
.	.	.	4cc	.	.
.	.	.	[2dd	[2g	.
8A	.	.	.	.	.
8G	.	.	.	.	.
=73	=73	=73	=73	=73	=73
1A	0r	1c	4dd]	2g]	1r
.	.	.	4cc	.	.
.	.	.	1cc	2f#	.
2.G	.	1d	.	[1g	2r
.	.	.	2b	.	2gg
4F	.	.	.	.	.
=74	=74	=74	=74	=74	=74
2E	0c	2e	2cc	2g]	2gg
2F	.	2A	2.cc	2a	2ff
2C	.	2.c	.	1g	2ee
.	.	.	8b	.	.
.	.	.	8a	.	.
2E	.	.	2g	.	2gg
.	.	4B	.	.	.
=75	=75	=75	=75	=75	=75
1F	0c	1A	2a	2r	2.ff
.	.	.	2f	2.cc	.
.	.	.	.	.	8ee
.	.	.	.	.	8dd
1C	.	2G	1g	.	1ee
.	.	.	.	4b	.
.	.	[2G	.	4g	.
.	.	.	.	4a	.
=76	=76	=76	=76	=76	=76
0G	0B	4G]	2r	4b	2dd
.	.	4A	.	4cc	.
.	.	4B	2.g	2dd	4g
.	.	4c	.	.	4a
.	.	1d	.	1g	4b
.	.	.	8f	.	4cc
.	.	.	8e	.	.
.	.	.	2d	.	[2dd
=77	=77	=77	=77	=77	=77
1r	0A	2r	1e	[0a	2dd]
.	.	2e	.	.	2cc#
1D	.	1f	2d	.	1dd
.	.	.	[2a	.	.
=78	=78	=78	=78	=78	=78
2.A	0c	[0e	4a]	1a]	2r
.	.	.	4b	.	.
.	.	.	2cc	.	2a
4B	.	.	.	.	.
2c	.	.	2c	[1g	2.ee
2C	.	.	[2e	.	.
.	.	.	.	.	4ff
=79	=79	=79	=79	=79	=79
2.E	0B	1e]	4e]	1g]	2gg
.	.	.	4f	.	.
.	.	.	1g	.	2g
4F	.	.	.	.	.
1G	.	[1d	.	2r	2.b
.	.	.	4d	2g	.
.	.	.	4e	.	4cc
=80	=80	=80	=80	=80	=80
4D	0A	1d]	4f	2a	2dd
4E	.	.	4g	.	.
4F	.	.	1a	2f	4a
4G	.	.	.	.	4b
4A	.	1c	.	1e	4cc
4B	.	.	.	.	4dd
[2c	.	.	2e	.	4ee
.	.	.	.	.	4ff
=81	=81	=81	=81	=81	=81
2c]	0G	0d	2r	1r	2gg
4B	.	.	1g	.	2dd
4A	.	.	.	.	.
1B	.	.	.	2r	2.gg
.	.	.	2G	2d	.
.	.	.	.	.	4ff
=82	=82	=82	=82	=82	=82
2c	0A	2r	2c	2.a	4ee
.	.	.	.	.	4dd
1F	.	1f	2.c	.	4cc
.	.	.	.	4b	4b
.	.	.	.	2cc	1a
.	.	.	4A	.	.
2A	.	[2e	2a	2c	.
=83	=83	=83	=83	=83	=83
1.E	0B	4e]	1.g	2.e	2r
.	.	4f	.	.	.
.	.	2g	.	.	2g
.	.	.	.	4f	.
.	.	1G	.	[1g	2.b
2G	.	.	2d	.	.
.	.	.	.	.	4cc
=84	=84	=84	=84	=84	=84
0D	0A	2A	0a	2g]	1.dd
.	.	2d	.	4f#	.
.	.	.	.	4e	.
.	.	1d	.	1f#	.
.	.	.	.	.	2a
=85	=85	=85	=85	=85	=85
1G	0G	2r	2d	[0g	4b
.	.	.	.	.	4cc
.	.	2d	2.g	.	4dd
.	.	.	.	.	4b
1C	.	2.e	.	.	4cc
.	.	.	4f	.	4dd
.	.	.	[2e	.	[2ee
.	.	4f	.	.	.
=86	=86	=86	=86	=86	=86
2.E	[0G	2g	2e]	0g]	4ee]
.	.	.	.	.	4ff
.	.	2G	2e	.	2.gg
4F	.	.	.	.	.
2G	.	1B	2d	.	.
.	.	.	.	.	4ff
2G	.	.	2g	.	2dd
=87	=87	=87	=87	=87	=87
0C	1G_	0c	0e	[0g	1ee
.	1G_	.	.	.	1cc
=88	=88	=88	=88	=88	=88
0G	0G]	0B	0d	0g]	0dd
==	==	==	==	==	==
*-	*-	*-	*-	*-	*-
!!!CDT: 1525/^1526/-1594/2/2
!!!OCY: Italia
!!!AGN: Mass (Paraphrase)
!!!AST: renaissance, vocal
!!!ASW: Antiphon
!!!PWK: Masses, Book 12
!!!RNB: Cadence finals: C
!!!YOR: Le Opere Complete, v. 29, p. 123
!!!YOO: Rome, Italy: Fratelli Scalera
!!!END: 1992//
!!!EED: John Miller
!!!YEC: Copyright 2000, John Miller
!!!YEN: United States of America
!!!YEM: Rights to all derivative electronic formats reserved.
!!!YEM: Refer to licensing agreement for further details.
!!!YEM: This file must be accompanied by the licensing agreement.
!!!YEM: A copy of the licensing agreement may be found at http://www.music-cog.ohio-state.edu/HumdrumDatabases/Palestrina/license.txt
!!!EMD: converted to Humdrum by Bret Aarden
